X:3227
T:Colonel Thornton
S:Sandy MacIntyre
A:Cape Breton
R:Reel
M:C|
L:1/8
K:ADor
A| E(A,A,B,) C2 CE | DCB,D ECDB, | E(A,A,B,) C/C/C CE | DB,GB, (G,A,) A,:|
B,| (G,A,)A,A EA,EA | GEDG B,G,G,B, | (G,A,)A,A EA,EA| GEDB, A,/A,/A, A,B,|
 (G,A,)A,A GAAE | GEDC B,DDA | E(A,A,B,) C/C/C CE | DB,GB, (G,A,) A,||
B,| A,aag {ab}agea | gedg BAGB| Aaab {ab}ageg | dBgB A2 AB  |
Aaab {ab}ageb | gedg BAGB | cBAB cdec | dBgB A2A|
%%newpage


